X: 31712
T: Pasucais De La Villa
R: jig
M: 6/8
K: Dmajor
d3 ded|~c3 cdc|~B3 BAG|FED CDE|
~c3 cdc|~B3 BcB|ABA GFE|1 D3 DFA:|2 D3 D2 E||
|:~F3 GFG|A2 F FEF|G2 E EDE|~F2 D D2 D|
~F3 GFG|A2 F FEF|GAG ECE|1 D3 D2 E:|2 D3 DFG||
AFA GEG|FED DFA|ABA GFE|~F3 F2 G|
AFA GEG|FED DFA|ABA GFE|D3 DFG|
AFA GEG|FED DFA|ABA GFE|~F3 z FG|
ABc def|gfe dcB|ABA GFE|D3 D2 A|
AFA AFA|G3 GEF|GEF GBA|~F3 F2 A|
AFA AFA|G3 GEF|GEF GBA|F3 F2 F|
|:FDF FDF|G2 E ECE|ECE ECE|~F2 D D2 F|
FDF FDF|G2 E ECE|ECE EFE|1 D3 D2 F:|2 D3 DFA||

